src/components/00-materials/images-raw/Productivity/Puzzle.svg

<svg xmlns="http://www.w3.org/2000/svg" viewBox="0 0 96 96"><defs><style>.cls-2{fill:none;stroke:#00008f;stroke-linecap:round;stroke-linejoin:round;stroke-width:2px}</style></defs><g id="Layer_2" data-name="Layer 2"><g id="icons"><path fill="#fff" d="M0 0h96v96H0z"/><path class="cls-2" d="M74 12a5 5 0 1 1-8 0H56v10a5 5 0 1 0 0 8v10h10a5 5 0 1 1 8 0h10V12zM42 82h28V72a5 5 0 1 1 0-8V54H60a5 5 0 1 0-8 0H42v10M39 35a5 5 0 0 1 3 1V26H14v10a5 5 0 1 1 0 8v10h10a5 5 0 1 0 8 0h10V44a5 5 0 1 1-3-9z"/><path class="cls-2" d="M14 54v28h10a5 5 0 1 1 8 0h10V72a5 5 0 1 0 0-8"/></g></g></svg>

<svg xmlns="http://www.w3.org/2000/svg" viewBox="0 0 96 96"><defs><style>.cls-1{fill:#fff;}.cls-2{fill:none;stroke:#00008f;stroke-linecap:round;stroke-linejoin:round;stroke-width:2px;}</style></defs><title>Puzzle</title><g id="Layer_2" data-name="Layer 2"><g id="icons"><rect class="cls-1" width="96" height="96"/><path class="cls-2" d="M74,12a5,5,0,1,1-8,0H56V22a5,5,0,1,0,0,8V40H66a5,5,0,1,1,8,0H84V12Z"/><path class="cls-2" d="M42,82H70V72a5,5,0,1,1,0-8V54H60a5,5,0,1,0-8,0H42V64"/><path class="cls-2" d="M39,35a5,5,0,0,1,3,1V26H14V36a5,5,0,1,1,0,8V54H24a5,5,0,1,0,8,0H42V44a5,5,0,1,1-3-9Z"/><path class="cls-2" d="M14,54V82H24a5,5,0,1,1,8,0H42V72a5,5,0,1,0,0-8"/></g></g></svg>
